X: 1
T: Clorinda False
T:Descant
C: Thomas Morley
L: 1/4
M: C
%#Noindex
%%measurenb 0
%%squarebreve
%%scale 0.95
K: F 
z4 |z2 G2 |: d3/ e/ f d | c3/ B/ A G | A2 =B d | d d d2 |
w:Clo- rin- da false, a- dieu, thy love tor- ments me, thy love tor-ments
 d4 |z2 z f | e d c3/ d/ | B3/ c/ A d | 
w:me;  Let Thyr-sis, Thyr-sis have thy heart, since 
B c/d/ _e e | d4 |[1 =B4 |z2 G2 :| [2 =B2 d2 |
w:he___ con-tents thee. Clo- thee. O
_e3 e | d2 G2 | c d B2 | A4 | z4 |
w: grief and bit-ter an --guish,
z2 d2 | g3 g | f2 d2 | _e4 | d2 d2- | 
w: O grief and bit-ter an-guish; for
d2 c2- | c B B2- | B2 A2 | B4 |z2 f f/_e/ | 
w:_ thee_ I lan --guish. Fain I a-
d d f2 | c4 | d d/_e/ f d | g4 | f f3/ f/ f | 
w:las would hide it, fain I a-las would hide it. O but who
f e f2 | d2 d2 | c/B/c/d/ _e e | d4 | =B4 |
w:can a-bide it? I can, I can-not I a-bide it.
z2 z d | _e/d/e/d/ e d |z2 z d | _e/d/e/d/ e d |
w:A-dieu, a-dieu, a-dieu then, a-dieu, a-dieu, a-dieu then,
z2 d2- | d2 A2 |z =B3/ B/ B | c d _e2 | d2 d2 | 
w:fare - well leave me, death now de-sir-ing, thou
f3 f | e d d ^c | d3 f | e3/ c/ d3/ B/ | c A B G | 
w: hast, lo, thy re-quir - ing. Thus spake Phil-is-tus, on his hook re-
d dz g | f3/ d/ _e3/ c/ | d B A A |z d f2- | 
w:ly-ing, thus spake he, on his hook re-ly-ing, and sweet-
f e d c | B A3/ G/ G- | G ^F/E/ F2 | G4 |z2 z g | 
w:- ly, sweet-ly, sweet fell a-dy ----ing. Thus
f3/ d/ _e3/ c/ | d3/ B/ c3/ d/ | B A G2 | ^F2z =f | e3/ c/ d3/ B/ | 
w:spake Phil-is-tus, on his hook re-ly -- ing, thus spake Phil-is-tus,
c A B G | d dz g | f3/ d/ _e3/ c/ | d B A A |
w:on his hook re-ly-ing,  thus spake he, on his hook re-ly-ing,
z d f2- | f e d c | B A3/ G/ G- | G ^F/E/ F2 | G4|]
w:and sweet - ly, sweet-ly, sweet fell a-dy ----ing.

